humanity-icon-theme/Humanity/devices/16/input-keyboard.svg

<?xml version="1.0" encoding="UTF-8" standalone="no"?>
<!-- Created with Inkscape (http://www.inkscape.org/) -->
<svg id="svg11300" xmlns="http://www.w3.org/2000/svg" height="16" width="16" version="1.0" xmlns:xlink="http://www.w3.org/1999/xlink">
 <defs id="defs3">
  <radialGradient id="radialGradient2852" gradientUnits="userSpaceOnUse" cy="13" cx="12" gradientTransform="matrix(1.5 0 0 .8 -7 -3.4)" r="10">
   <stop id="stop3909" style="stop-color:#fff;stop-opacity:.70588" offset="0"/>
   <stop id="stop3911" style="stop-color:#fff;stop-opacity:.23529" offset="1"/>
  </radialGradient>
  <linearGradient id="linearGradient2855" y2="16" gradientUnits="userSpaceOnUse" x2="16" gradientTransform="matrix(.65219 0 0 .69231 .17389 -1.6924)" y1="2" x1="13">
   <stop id="stop4576" style="stop-color:#282828" offset="0"/>
   <stop id="stop4578" style="stop-color:#5a5c58" offset="1"/>
  </linearGradient>
  <linearGradient id="linearGradient2861" y2="84.22" gradientUnits="userSpaceOnUse" x2="-104.76" gradientTransform="matrix(0.12 0 0 .18037 19.295 -2.4767)" y1="74.24" x1="-104.53">
   <stop id="stop6546" style="stop-color:#ebebeb" offset="0"/>
   <stop id="stop6548" style="stop-color:#b4b4b4" offset="1"/>
  </linearGradient>
  <linearGradient id="linearGradient2863" y2="40" gradientUnits="userSpaceOnUse" x2="15.031" gradientTransform="matrix(.31916 0 0 .42858 .34038 -4.4288)" y1="18" x1="15.114">
   <stop id="stop7605" style="stop-color:#b4b4b4" offset="0"/>
   <stop id="stop7607" style="stop-color:#8c8c8c" offset="1"/>
  </linearGradient>
 </defs>
 <rect id="rect6674" style="stroke-width:.99992;stroke:url(#linearGradient2863);enable-background:new;fill:url(#linearGradient2861)" rx=".48936" ry=".59091" height="9.0001" width="15" y="3.4999" x=".49996"/>
 <path id="rect5550" style="fill:url(#linearGradient2855)" d="m1 5v5h9v-5h-9zm10 0v3h1v-3h-1zm2 0v5h2v-5h-2zm-2 4v1h1v-1h-1z"/>
 <path id="rect2340" style="opacity:.6;fill:url(#radialGradient2852)" d="m2 5v1h1v-1h-1zm1 1v1h1v-1h-1zm1 0h1v-1h-1v1zm1 0v1h1v-1h-1zm1 0h1v-1h-1v1zm1 0v1h1v-1h-1zm1 0h1v-1h-1v1zm1 0v1h1v-1h-1zm1 0h1-1zm1 0v1h1v-1h-1zm1 0h1-1zm1 0v1h1v-1h-1zm0 1h-1v1h1v-1zm0 1v1h1v-1h-1zm0 1h-1 1zm-1 0v-1h-1v1h1zm-1 0h-1 1zm-1 0v-1h-1v1h1zm-1 0h-1v1h1v-1zm-1 0v-1h-1v1h1zm-1 0h-1v1h1v-1zm-1 0v-1h-1v1h1zm-1 0h-1v1h1v-1zm-1 0v-1h-1v1h1zm-1 0h-1v1h1v-1zm-1 1zm0-1v-1h-1v1h1zm0-1h1v-1h-1v1zm0-1v-1h-1v1h1zm2 1h1v-1h-1v1zm2 0h1v-1h-1v1zm2 0h1v-1h-1v1zm2 0h1v-1h-1v1zm4-1zh1v1h-1v-1zm0 1zm0 1v1h1v-1h-1zm1 1z"/>
</svg>

<?xml version="1.0" encoding="UTF-8" standalone="no"?>
<!-- Created with Inkscape (http://www.inkscape.org/) -->

<svg
   xmlns:svg="http://www.w3.org/2000/svg"
   xmlns="http://www.w3.org/2000/svg"
   xmlns:xlink="http://www.w3.org/1999/xlink"
   version="1.0"
   width="16"
   height="16"
   id="svg11300">
  <defs
     id="defs3">
    <linearGradient
       id="linearGradient3907">
      <stop
         id="stop3909"
         style="stop-color:white;stop-opacity:0.70588237"
         offset="0" />
      <stop
         id="stop3911"
         style="stop-color:white;stop-opacity:0.23529412"
         offset="1" />
    </linearGradient>
    <linearGradient
       id="linearGradient7603">
      <stop
         id="stop7605"
         style="stop-color:#b4b4b4;stop-opacity:1"
         offset="0" />
      <stop
         id="stop7607"
         style="stop-color:#8c8c8c;stop-opacity:1"
         offset="1" />
    </linearGradient>
    <linearGradient
       id="linearGradient4574">
      <stop
         id="stop4576"
         style="stop-color:#282828;stop-opacity:1"
         offset="0" />
      <stop
         id="stop4578"
         style="stop-color:#5a5c58;stop-opacity:1"
         offset="1" />
    </linearGradient>
    <linearGradient
       id="linearGradient6544">
      <stop
         id="stop6546"
         style="stop-color:#ebebeb;stop-opacity:1"
         offset="0" />
      <stop
         id="stop6548"
         style="stop-color:#b4b4b4;stop-opacity:1"
         offset="1" />
    </linearGradient>
    <radialGradient
       cx="12"
       cy="13"
       r="10"
       fx="12"
       fy="13"
       id="radialGradient2852"
       xlink:href="#linearGradient3907"
       gradientUnits="userSpaceOnUse"
       gradientTransform="matrix(1.5,0,0,0.8,-7,-3.3999999)" />
    <linearGradient
       x1="13"
       y1="2"
       x2="16"
       y2="16"
       id="linearGradient2855"
       xlink:href="#linearGradient4574"
       gradientUnits="userSpaceOnUse"
       gradientTransform="matrix(0.65218947,0,0,0.69231338,0.17389136,-1.6924127)" />
    <linearGradient
       x1="-104.52803"
       y1="74.240334"
       x2="-104.76312"
       y2="84.219604"
       id="linearGradient2861"
       xlink:href="#linearGradient6544"
       gradientUnits="userSpaceOnUse"
       gradientTransform="matrix(0.11999582,0,0,0.18037429,19.294665,-2.4767215)" />
    <linearGradient
       x1="15.114408"
       y1="18.000002"
       x2="15.031146"
       y2="40"
       id="linearGradient2863"
       xlink:href="#linearGradient7603"
       gradientUnits="userSpaceOnUse"
       gradientTransform="matrix(0.31915759,0,0,0.42857742,0.34038477,-4.4287653)" />
  </defs>
  <rect
     width="15.000411"
     height="9.0001287"
     rx="0.48936364"
     ry="0.59091341"
     x="0.49996009"
     y="3.4999111"
     id="rect6674"
     style="fill:url(#linearGradient2861);fill-opacity:1;fill-rule:nonzero;stroke:url(#linearGradient2863);stroke-width:0.99992019;stroke-linecap:butt;stroke-linejoin:miter;stroke-miterlimit:4;stroke-opacity:1;stroke-dasharray:none;stroke-dashoffset:0;marker:none;visibility:visible;display:inline;overflow:visible;enable-background:new" />
  <path
     d="m 1,5 0,5 9,0 0,-5 -9,0 z m 10,0 0,2.9999747 1,0 L 12,5 11,5 z m 2,0 0,5 2,0 0,-5 -2,0 z m -2,4 0,1 1,0 0,-1 -1,0 z"
     id="rect5550"
     style="fill:url(#linearGradient2855);fill-opacity:1;stroke:none" />
  <path
     d="M 2,5 2,6 3,6 3,5 2,5 z M 3,6 3,7 4,7 4,6 3,6 z M 4,6 5,6 5,5 4,5 4,6 z M 5,6 5,7 6,7 6,6 5,6 z M 6,6 7,6 7,5 6,5 6,6 z M 7,6 7,7 8,7 8,6 7,6 z M 8,6 9,6 9,5 8,5 8,6 z m 1,0 0,1 0.9999996,0 0,-1 L 9,6 z M 9.9999996,6 11,6 9.9999996,6 z M 11,6 l 0,1 1,0 0,-1 -1,0 z m 1,0 1,0 -1,0 z m 1,0 0,1 1,0 0,-1 -1,0 z m 0,1 -1,0 0,1 1,0 0,-1 z m 0,1 0,1 1,0 0,-1 -1,0 z m 0,1 -1,0 1,0 z m -1,0 0,-1 -1,0 0,1 1,0 z M 11,9 9.9999996,9 11,9 z m -1.0000004,0 0,-1 L 9,8 9,9 9.9999996,9 z M 9,9 8,9 8,10 9,10 9,9 z M 8,9 8,8 7,8 7,9 8,9 z M 7,9 6,9 6,10 7,10 7,9 z M 6,9 6,8 5,8 5,9 6,9 z M 5,9 4,9 4,10 5,10 5,9 z M 4,9 4,8 3,8 3,9 4,9 z M 3,9 2,9 2,10 3,10 3,9 z m -1,1 0,0 z M 2,9 2,8 1,8 1,9 2,9 z M 2,8 3,8 3,7 2,7 2,8 z M 2,7 2,6 1,6 1,7 2,7 z M 4,8 5,8 5,7 4,7 4,8 z M 6,8 7,8 7,7 6,7 6,8 z M 8,8 9,8 9,7 8,7 8,8 z M 9.9999996,8 11,8 11,7 9.9999996,7 l 0,1 z M 14,7 14,7 z m 0,0 1,0 0,1 -1,0 0,-1 z m 0,1 0,0 z m 0,1 0,1 1,0 0,-1 -1,0 z m 1,1 0,0 z"
     id="rect2340"
     style="opacity:0.6;fill:url(#radialGradient2852);fill-opacity:1;fill-rule:nonzero;stroke:none;stroke-width:1;marker:none;visibility:visible;display:inline;overflow:visible" />
</svg>
